X:1
T:Prelude
T:Prelude
T:BWV 931
T:Johann Sebastian Bach
C:Johann Sebastian Bach
%%score 1 2 3 4
L:1/8
M:4/4
K:C
V:1 treble 
V:2 treble 
V:3 bass 
V:4 bass 
V:1
 [ce]4 d2 f/ed/ | x2 e2 x A/4B/4c/ f2 | B2 B2 c2 z B | (Bc) (BA) B2 z A | (AB) (AG) GA G^F | %5
 G2 AB c2 de | f2 ^GA Bc d/cB/ | c/4B/4A/B/c/ B>A [EA]4 |] %8
V:2
 A4 B2 B2 | McMd z ^G AA MB>A | ^G2 [EG]2 A2 z G | ^GA =G^F G2 z F | ^FG FE EF E^D | %5
 E2 ^F^G A2 B^c | d2 E^F G2 A2- | A2 ^G2 ^C4 |] %8
V:3
 A,,2 x2 x4 | x2 z E, F,4 | x4 C,B,,/A,,/E,E,, | A,,2 z D, B,,A,,/G,,/ D,D,, | G,,2 x2 x4 | %5
 x2 C,B,, x4 | z D2 C, B,,2 A,,2 | E,4- E,E, A,2 |] %8
V:4
 x2 A,4 ^G,2 | A,2 x2 z2 D,2 | E,2 z E, x4 | x8 | x2 z C A,G,/^F,/ B,B,, | E,D, x2 A,,=G, M=F,E, | %6
 D,3 x x4 | z2 E,,2 x4 |] %8

